src/assets/vectors/sync-tip-03.svg

<svg width="57" height="46" viewBox="0 0 57 46" fill="none" xmlns="http://www.w3.org/2000/svg">
<mask id="mask0" mask-type="alpha" maskUnits="userSpaceOnUse" x="28" y="0" width="29" height="30">
<rect x="29.2586" y="1.84021" width="26.6723" height="26.6723" fill="#C4C4C4" stroke="#FF9500" stroke-width="2" stroke-linecap="round"/>
</mask>
<g mask="url(#mask0)">
<path d="M42.591 18.2348V19.7602" stroke="#FF9500" stroke-width="2" stroke-linecap="round"/>
<path d="M38.0522 6.20474C38.4273 5.82967 38.936 5.61896 39.4664 5.61896H45.7231C46.2536 5.61896 46.7623 5.82967 47.1374 6.20474L51.5665 10.6338C51.9415 11.0089 52.1522 11.5176 52.1522 12.048V18.3048C52.1522 18.8352 51.9415 19.3439 51.5665 19.719L47.1374 24.1481C46.7623 24.5231 46.2536 24.7338 45.7231 24.7338H39.4664C38.936 24.7338 38.4273 24.5231 38.0522 24.1481L33.6231 19.719C33.2481 19.3439 33.0374 18.8352 33.0374 18.3048V12.048C33.0374 11.5176 33.2481 11.0089 33.6231 10.6338L38.0522 6.20474Z" stroke="#FF9500" stroke-width="2" stroke-linecap="round"/>
<path d="M42.5947 10.1587V15.1248" stroke="#FF9500" stroke-width="2" stroke-linecap="round"/>
</g>
<mask id="mask1" mask-type="alpha" maskUnits="userSpaceOnUse" x="0" y="11" width="36" height="35">
<rect x="1.84943" y="12.23" width="32.6319" height="32.6319" fill="#C4C4C4" stroke="#FF9500" stroke-width="2"/>
</mask>
<g mask="url(#mask1)">
<path d="M18.4057 32.3939C20.3981 32.3939 22.0132 30.7788 22.0132 28.7864C22.0132 26.7941 20.3981 25.1789 18.4057 25.1789C16.4134 25.1789 14.7982 26.7941 14.7982 28.7864C14.7982 30.7788 16.4134 32.3939 18.4057 32.3939Z" stroke="#FF9500" stroke-width="2"/>
<path d="M27.3043 32.3939C27.1443 32.7566 27.0965 33.1589 27.1672 33.549C27.238 33.9391 27.4239 34.299 27.7012 34.5824L27.7733 34.6546C27.9969 34.8779 28.1743 35.1432 28.2953 35.4351C28.4164 35.7271 28.4787 36.0401 28.4787 36.3561C28.4787 36.6722 28.4164 36.9851 28.2953 37.2771C28.1743 37.569 27.9969 37.8343 27.7733 38.0576C27.55 38.2813 27.2847 38.4586 26.9927 38.5797C26.7008 38.7007 26.3878 38.763 26.0718 38.763C25.7557 38.763 25.4428 38.7007 25.1508 38.5797C24.8588 38.4586 24.5936 38.2813 24.3702 38.0576L24.2981 37.9855C24.0147 37.7083 23.6547 37.5223 23.2647 37.4516C22.8746 37.3809 22.4722 37.4286 22.1096 37.5887C21.7539 37.7411 21.4506 37.9942 21.2369 38.3168C21.0233 38.6394 20.9086 39.0175 20.9071 39.4044V39.6089C20.9071 40.2467 20.6537 40.8584 20.2026 41.3095C19.7516 41.7605 19.1399 42.0139 18.5021 42.0139C17.8642 42.0139 17.2525 41.7605 16.8015 41.3095C16.3505 40.8584 16.0971 40.2467 16.0971 39.6089V39.5006C16.0878 39.1026 15.9589 38.7166 15.7273 38.3928C15.4957 38.069 15.172 37.8223 14.7984 37.6849C14.4357 37.5248 14.0334 37.4771 13.6433 37.5478C13.2532 37.6185 12.8932 37.8045 12.6098 38.0817L12.5377 38.1538C12.3143 38.3775 12.0491 38.5548 11.7571 38.6759C11.4652 38.7969 11.1522 38.8592 10.8362 38.8592C10.5201 38.8592 10.2071 38.7969 9.91518 38.6759C9.62322 38.5548 9.35798 38.3775 9.13462 38.1538C8.91101 37.9305 8.73362 37.6652 8.61259 37.3733C8.49156 37.0813 8.42927 36.7684 8.42927 36.4523C8.42927 36.1363 8.49156 35.8233 8.61259 35.5313C8.73362 35.2394 8.91101 34.9741 9.13462 34.7508L9.20677 34.6786C9.48399 34.3952 9.66995 34.0353 9.74068 33.6452C9.81141 33.2551 9.76366 32.8528 9.60359 32.4901C9.45116 32.1344 9.19806 31.8311 8.87544 31.6174C8.55282 31.4038 8.17477 31.2891 7.78782 31.2876H7.5834C6.94555 31.2876 6.33384 31.0342 5.88281 30.5832C5.43179 30.1322 5.17841 29.5204 5.17841 28.8826C5.17841 28.2448 5.43179 27.633 5.88281 27.182C6.33384 26.731 6.94555 26.4776 7.5834 26.4776H7.69162C8.08964 26.4683 8.47566 26.3395 8.79948 26.1079C9.12331 25.8762 9.36997 25.5526 9.50739 25.1789C9.66746 24.8162 9.71521 24.4139 9.64448 24.0238C9.57375 23.6337 9.38779 23.2738 9.11057 22.9904L9.03842 22.9182C8.81481 22.6949 8.63742 22.4296 8.51639 22.1377C8.39536 21.8457 8.33307 21.5327 8.33307 21.2167C8.33307 20.9006 8.39536 20.5877 8.51639 20.2957C8.63742 20.0038 8.81481 19.7385 9.03842 19.5152C9.26178 19.2915 9.52702 19.1142 9.81898 18.9931C10.1109 18.8721 10.4239 18.8098 10.74 18.8098C11.056 18.8098 11.369 18.8721 11.6609 18.9931C11.9529 19.1142 12.2181 19.2915 12.4415 19.5152L12.5136 19.5873C12.797 19.8645 13.157 20.0505 13.5471 20.1212C13.9372 20.192 14.3395 20.1442 14.7022 19.9841H14.7984C15.154 19.8317 15.4574 19.5786 15.671 19.256C15.8847 18.9334 15.9993 18.5553 16.0009 18.1684V17.9639C16.0009 17.3261 16.2543 16.7144 16.7053 16.2634C17.1563 15.8123 17.768 15.5589 18.4059 15.5589C19.0437 15.5589 19.6554 15.8123 20.1064 16.2634C20.5575 16.7144 20.8109 17.3261 20.8109 17.9639V18.0722C20.8124 18.4591 20.9271 18.8372 21.1407 19.1598C21.3544 19.4824 21.6577 19.7355 22.0134 19.8879C22.376 20.048 22.7784 20.0958 23.1685 20.025C23.5585 19.9543 23.9185 19.7683 24.2019 19.4911L24.274 19.419C24.4974 19.1953 24.7626 19.018 25.0546 18.8969C25.3466 18.7759 25.6595 18.7136 25.9756 18.7136C26.2916 18.7136 26.6046 18.7759 26.8965 18.8969C27.1885 19.018 27.4537 19.1953 27.6771 19.419C27.9007 19.6423 28.0781 19.9076 28.1991 20.1995C28.3202 20.4915 28.3825 20.8044 28.3825 21.1205C28.3825 21.4365 28.3202 21.7495 28.1991 22.0415C28.0781 22.3334 27.9007 22.5987 27.6771 22.822L27.605 22.8942C27.3277 23.1776 27.1418 23.5375 27.071 23.9276C27.0003 24.3177 27.0481 24.72 27.2081 25.0827V25.1789C27.3606 25.5346 27.6137 25.8379 27.9363 26.0516C28.2589 26.2652 28.637 26.3799 29.0239 26.3814H29.2283C29.8662 26.3814 30.4779 26.6348 30.9289 27.0858C31.3799 27.5368 31.6333 28.1486 31.6333 28.7864C31.6333 29.4242 31.3799 30.036 30.9289 30.487C30.4779 30.938 29.8662 31.1914 29.2283 31.1914H29.1201C28.7332 31.1929 28.3551 31.3076 28.0325 31.5212C27.7099 31.7349 27.4568 32.0382 27.3043 32.3939V32.3939Z" stroke="#FF9500" stroke-width="2"/>
</g>
</svg>

<svg width="57" height="46" fill="none" xmlns="http://www.w3.org/2000/svg"><mask id="a" maskUnits="userSpaceOnUse" x="28" y="0" width="29" height="30"><path fill="#C4C4C4" stroke="#127BF3" stroke-width="2" stroke-linecap="round" d="M29.259 1.84h26.672v26.672H29.259z"/></mask><g mask="url(#a)" stroke="#127BF3" stroke-width="2" stroke-linecap="round"><path d="M42.591 18.235v1.525M38.052 6.205a2 2 0 0 1 1.414-.586h6.257a2 2 0 0 1 1.414.586l4.43 4.429a2 2 0 0 1 .585 1.414v6.257a2 2 0 0 1-.586 1.414l-4.429 4.43a2 2 0 0 1-1.414.585h-6.257a2 2 0 0 1-1.414-.586l-4.429-4.429a2 2 0 0 1-.586-1.414v-6.257a2 2 0 0 1 .586-1.414l4.43-4.43zM42.595 10.159v4.966"/></g><mask id="b" maskUnits="userSpaceOnUse" x="0" y="11" width="36" height="35"><path fill="#C4C4C4" stroke="#127BF3" stroke-width="2" d="M1.849 12.23h32.632v32.632H1.849z"/></mask><g mask="url(#b)" stroke="#127BF3" stroke-width="2"><path d="M18.406 32.394a3.607 3.607 0 1 0 0-7.215 3.607 3.607 0 0 0 0 7.215z"/><path d="M27.304 32.394a1.985 1.985 0 0 0 .397 2.188l.072.073a2.404 2.404 0 0 1-.78 3.925 2.405 2.405 0 0 1-2.623-.522l-.072-.072a1.984 1.984 0 0 0-2.188-.397 1.984 1.984 0 0 0-1.203 1.815v.205a2.405 2.405 0 0 1-4.81 0V39.5a1.984 1.984 0 0 0-1.299-1.816 1.984 1.984 0 0 0-2.188.397l-.072.072a2.405 2.405 0 0 1-3.925-2.623c.12-.292.298-.557.522-.78l.072-.072a1.984 1.984 0 0 0 .397-2.189 1.984 1.984 0 0 0-1.816-1.202h-.205a2.405 2.405 0 0 1 0-4.81h.109a1.984 1.984 0 0 0 1.815-1.3 1.984 1.984 0 0 0-.396-2.188l-.073-.072a2.405 2.405 0 0 1 1.702-4.108 2.405 2.405 0 0 1 1.701.705l.073.072a1.984 1.984 0 0 0 2.188.397h.096a1.984 1.984 0 0 0 1.203-1.816v-.204a2.405 2.405 0 0 1 4.81 0v.108a1.984 1.984 0 0 0 1.202 1.816 1.983 1.983 0 0 0 2.189-.397l.072-.072a2.405 2.405 0 0 1 3.925 2.622 2.404 2.404 0 0 1-.522.781l-.072.072a1.984 1.984 0 0 0-.397 2.189v.096a1.985 1.985 0 0 0 1.816 1.202h.204a2.405 2.405 0 1 1 0 4.81h-.108a1.984 1.984 0 0 0-1.816 1.203v0z"/></g></svg>
